svgs/light/charging-station.svg

<svg xmlns="http://www.w3.org/2000/svg" viewBox="0 0 576 512"><!--! Font Awesome Pro 6.6.0 by @fontawesome - https://fontawesome.com License - https://fontawesome.com/license (Commercial License) Copyright 2024 Fonticons, Inc. --><path d="M256 32c17.7 0 32 14.3 32 32l0 416L64 480 64 64c0-17.7 14.3-32 32-32l160 0zM32 64l0 416-16 0c-8.8 0-16 7.2-16 16s7.2 16 16 16l16 0 32 0 224 0 32 0 16 0c8.8 0 16-7.2 16-16s-7.2-16-16-16l-16 0 0-192 16 0c26.5 0 48 21.5 48 48l0 48c0 35.3 28.7 64 64 64s64-28.7 64-64l0-113.6c36.5-7.4 64-39.7 64-78.4l0-48c0-8.8-7.2-16-16-16l-16 0 0-48c0-8.8-7.2-16-16-16s-16 7.2-16 16l0 48-32 0 0-48c0-8.8-7.2-16-16-16s-16 7.2-16 16l0 48-16 0c-8.8 0-16 7.2-16 16l0 48c0 38.7 27.5 71 64 78.4L480 384c0 17.7-14.3 32-32 32s-32-14.3-32-32l0-48c0-44.2-35.8-80-80-80l-16 0 0-192c0-35.3-28.7-64-64-64L96 0C60.7 0 32 28.7 32 64zm432 96l64 0 16 0 0 32c0 26.5-21.5 48-48 48s-48-21.5-48-48l0-32 16 0zM204.8 121.6c5.3-7.1 3.9-17.1-3.2-22.4s-17.1-3.9-22.4 3.2l-72 96c-3.6 4.8-4.2 11.3-1.5 16.8s8.3 8.8 14.3 8.8l80 0-52.8 70.4c-5.3 7.1-3.9 17.1 3.2 22.4s17.1 3.9 22.4-3.2l72-96c3.6-4.8 4.2-11.3 1.5-16.8s-8.3-8.8-14.3-8.8l-80 0 52.8-70.4z"/></svg>

<svg xmlns="http://www.w3.org/2000/svg" viewBox="0 0 576 512"><!--! Font Awesome Pro 6.4.2 by @fontawesome - https://fontawesome.com License - https://fontawesome.com/license (Commercial License) Copyright 2023 Fonticons, Inc. --><path d="M256 32c17.7 0 32 14.3 32 32V480H64V64c0-17.7 14.3-32 32-32H256zM32 64V480l-16 0c-8.8 0-16 7.2-16 16s7.2 16 16 16H32 64 288h32 16c8.8 0 16-7.2 16-16s-7.2-16-16-16l-16 0V288h16c26.5 0 48 21.5 48 48v48c0 35.3 28.7 64 64 64s64-28.7 64-64V270.4c36.5-7.4 64-39.7 64-78.4V144c0-8.8-7.2-16-16-16H544V80c0-8.8-7.2-16-16-16s-16 7.2-16 16v48H480V80c0-8.8-7.2-16-16-16s-16 7.2-16 16v48H432c-8.8 0-16 7.2-16 16v48c0 38.7 27.5 71 64 78.4V384c0 17.7-14.3 32-32 32s-32-14.3-32-32V336c0-44.2-35.8-80-80-80H320V64c0-35.3-28.7-64-64-64H96C60.7 0 32 28.7 32 64zm432 96h64 16v32c0 26.5-21.5 48-48 48s-48-21.5-48-48V160h16zM204.8 121.6c5.3-7.1 3.9-17.1-3.2-22.4s-17.1-3.9-22.4 3.2l-72 96c-3.6 4.8-4.2 11.3-1.5 16.8s8.3 8.8 14.3 8.8h80l-52.8 70.4c-5.3 7.1-3.9 17.1 3.2 22.4s17.1 3.9 22.4-3.2l72-96c3.6-4.8 4.2-11.3 1.5-16.8s-8.3-8.8-14.3-8.8H152l52.8-70.4z"/></svg>
